src/assets/icons/correct.svg

<svg width="120" height="120" viewBox="0 0 120 120" fill="none" xmlns="http://www.w3.org/2000/svg">
<g clip-path="url(#clip0)">
<path d="M42.2904 106.782C41.4203 105.911 40.5952 105.626 39.4401 105.626H27.4086C18.4375 105.626 14.417 101.575 14.417 92.6332V80.6002C14.417 79.4449 14.0869 78.6197 13.2618 77.7495L4.74075 69.1823C-1.54503 62.8507 -1.59004 57.2243 4.74075 50.8927L13.2618 42.2806C14.0869 41.4554 14.417 40.6302 14.417 39.4599V27.3819C14.417 18.4096 18.4225 14.4336 27.4086 14.4336H39.4401C40.5952 14.4336 41.4653 14.1035 42.2904 13.2783L50.8565 4.7562C57.1873 -1.57539 62.813 -1.6204 69.1438 4.7562L77.7099 13.2783C78.58 14.1035 79.4051 14.4336 80.5602 14.4336H92.5917C101.563 14.4336 105.583 18.4846 105.583 27.3819V39.4599C105.583 40.6152 105.913 41.4404 106.739 42.2806L115.26 50.8927C121.545 57.2243 121.59 62.8507 115.26 69.1823L106.739 77.7495C105.913 78.6197 105.583 79.4449 105.583 80.6002V92.6332C105.583 101.605 101.533 105.626 92.5917 105.626H80.5602C79.4051 105.626 78.58 105.911 77.7099 106.782L69.1438 115.259C62.813 121.545 57.1873 121.59 50.8565 115.259L42.2904 106.782ZM64.0582 110.173L74.2294 100C75.3396 98.7997 76.5397 98.3796 78.1149 98.3796H92.5917C97.4673 98.3796 98.3375 97.4644 98.3375 92.6332V78.1095C98.3375 76.5341 98.8325 75.3338 99.9576 74.2236L110.174 64.081C113.609 60.6002 113.609 59.4449 110.174 55.979L99.9576 45.8065C98.8475 44.6962 98.3375 43.4959 98.3375 41.9205V27.3969C98.3375 22.5506 97.4673 21.6804 92.5917 21.6804H78.1149C76.5397 21.6804 75.3396 21.2303 74.2294 20.06L64.0582 9.85747C60.5777 6.42161 59.4226 6.42161 55.9572 9.85747L45.7859 20.075C44.6757 21.2303 43.5056 21.6954 41.9454 21.6954H27.4236C22.503 21.6954 21.6779 22.5206 21.6779 27.4119V41.9355C21.6779 43.5109 21.1828 44.7112 20.0577 45.8215L9.84139 55.994C6.45097 59.4749 6.45097 60.6302 9.84139 64.096L20.0577 74.2386C21.1678 75.3488 21.6779 76.5491 21.6779 78.1245V92.6482C21.6779 97.4944 22.593 98.3946 27.4236 98.3946H41.9454C43.5206 98.3946 44.6757 98.8147 45.7859 100.015L55.9572 110.188C59.4226 113.608 60.5777 113.608 64.0582 110.173ZM48.6662 84.3211L31.4141 64.9212C30.709 64.2161 30.379 63.3458 30.379 62.4456C30.379 60.3301 31.9992 58.7997 34.2194 58.7997C35.3746 58.7997 36.2897 59.1748 37.0398 60L51.3966 76.009L78.73 37.3593C79.6451 36.114 80.4702 35.5739 82.0004 35.5739C84.1157 35.5739 85.7209 37.1493 85.7209 39.2198C85.7209 40 85.3908 40.8702 84.8958 41.5754L54.577 84.111C53.9169 84.9813 52.8818 85.5664 51.5166 85.5664C50.2414 85.5664 49.3713 85.0713 48.6662 84.3211Z" fill="white"/>
</g>
<defs>
<clipPath id="clip0">
<rect width="120" height="120" fill="white"/>
</clipPath>
</defs>
</svg>

<svg width="120" height="120" fill="none" xmlns="http://www.w3.org/2000/svg"><g clip-path="url(#clip0)"><path d="M42.29 106.782c-.87-.871-1.695-1.156-2.85-1.156H27.41c-8.971 0-12.992-4.051-12.992-12.993V80.6c0-1.155-.33-1.98-1.155-2.85L4.74 69.181c-6.286-6.331-6.331-11.958 0-18.29l8.52-8.611c.826-.826 1.156-1.65 1.156-2.821V27.382c0-8.972 4.005-12.948 12.992-12.948H39.44c1.155 0 2.025-.33 2.85-1.156l8.566-8.522c6.331-6.331 11.957-6.376 18.288 0l8.566 8.522c.87.825 1.695 1.156 2.85 1.156h12.032c8.971 0 12.991 4.05 12.991 12.948V39.46c0 1.155.33 1.98 1.156 2.82l8.521 8.613c6.285 6.331 6.33 11.958 0 18.29l-8.521 8.566c-.826.87-1.156 1.696-1.156 2.851v12.033c0 8.972-4.05 12.993-12.991 12.993H80.56c-1.155 0-1.98.285-2.85 1.156l-8.566 8.477c-6.331 6.286-11.957 6.331-18.288 0l-8.566-8.477zm21.768 3.391L74.23 100c1.11-1.2 2.31-1.62 3.886-1.62h14.477c4.875 0 5.746-.916 5.746-5.747V78.11c0-1.576.495-2.776 1.62-3.886l10.216-10.143c3.435-3.48 3.435-4.636 0-8.102L99.958 45.807c-1.11-1.11-1.62-2.311-1.62-3.887V27.397c0-4.846-.87-5.717-5.746-5.717H78.115c-1.575 0-2.775-.45-3.886-1.62L64.06 9.857c-3.481-3.435-4.636-3.435-8.102 0L45.786 20.075c-1.11 1.155-2.28 1.62-3.84 1.62H27.423c-4.921 0-5.746.826-5.746 5.717v14.523c0 1.576-.495 2.776-1.62 3.886L9.84 55.995c-3.39 3.48-3.39 4.636 0 8.102l10.217 10.143c1.11 1.11 1.62 2.31 1.62 3.885v14.524c0 4.846.915 5.747 5.746 5.747h14.521c1.576 0 2.73.42 3.84 1.62l10.172 10.173c3.466 3.42 4.62 3.42 8.101-.015zM48.666 84.321l-17.252-19.4a3.44 3.44 0 01-1.035-2.475c0-2.116 1.62-3.646 3.84-3.646 1.156 0 2.07.375 2.82 1.2l14.358 16.009 27.333-38.65c.915-1.245 1.74-1.785 3.27-1.785 2.116 0 3.72 1.575 3.72 3.646 0 .78-.33 1.65-.824 2.355L54.577 84.111c-.66.87-1.695 1.455-3.06 1.455-1.276 0-2.146-.495-2.85-1.245z" fill="#fff"/></g><defs><clipPath id="clip0"><path fill="#fff" d="M0 0h120v120H0z"/></clipPath></defs></svg>
